src/images/icons/thumb_up_outlined.svg

<svg xmlns="http://www.w3.org/2000/svg" xmlns:xlink="http://www.w3.org/1999/xlink" viewBox="0 0 512 512">
  <title>
    thumb up outlined
  </title>
  <path fill-rule="evenodd" clip-rule="evenodd" d="M387.84 405.333H213.333V192L267.2 70.6773C268.928 66.624 272.917 64 277.333 64V234.667H417.301C423.701 234.667 429.717 237.504 433.771 242.475C437.845 247.445 439.467 253.888 438.208 260.181L387.84 405.333ZM170.667 192V448H387.84C408.107 448 425.728 433.579 429.675 413.717L480.043 268.544C483.819 249.685 478.997 230.315 466.773 215.424C454.571 200.533 436.544 192 417.301 192H320V64C320 40.4693 300.864 21.3333 277.333 21.3333C255.829 21.3333 236.459 34.112 227.989 53.8667L170.667 192ZM43.6667 192C43.1145 192 42.6667 192.448 42.6667 193V447C42.6667 447.552 43.1145 448 43.6667 448H128V192H43.6667Z"/>
</svg>

<svg xmlns="http://www.w3.org/2000/svg" xmlns:xlink="http://www.w3.org/1999/xlink" viewBox="0 0 512 512">
  <title>
    thumb up outlined
  </title>
  <path d="M387.84 405.333H213.333V192L267.2 70.677A11.005 11.005 0 01277.333 64v170.667h139.968c6.4 0 12.416 2.837 16.47 7.808 4.074 4.97 5.696 11.413 4.437 17.706L387.84 405.333zM170.667 192v256H387.84c20.267 0 37.888-14.421 41.835-34.283l50.368-145.173c3.776-18.859-1.046-38.229-13.27-53.12C454.571 200.533 436.544 192 417.301 192H320V64c0-23.53-19.136-42.667-42.667-42.667a53.637 53.637 0 00-49.344 32.534L170.667 192zm-127 0a1 1 0 00-1 1v254a1 1 0 001 1H128V192H43.667z"/>
</svg>
